images/6604775.svg

<?xml version="1.0" encoding="UTF-8"?>
<svg xmlns="http://www.w3.org/2000/svg" xmlns:xlink="http://www.w3.org/1999/xlink" width="300pt" height="300pt" viewBox="0 0 300 300" version="1.1">
<defs>
<g>
<symbol overflow="visible" id="glyph0-0">
<path style="stroke:none;" d="M 0.546875 1.9375 L 0.546875 -7.75 L 6.046875 -7.75 L 6.046875 1.9375 Z M 1.171875 1.328125 L 5.4375 1.328125 L 5.4375 -7.140625 L 1.171875 -7.140625 Z M 1.171875 1.328125 "/>
</symbol>
<symbol overflow="visible" id="glyph0-1">
<path style="stroke:none;" d="M 1.078125 -8.015625 L 2.546875 -8.015625 L 6.09375 -1.3125 L 6.09375 -8.015625 L 7.15625 -8.015625 L 7.15625 0 L 5.6875 0 L 2.125 -6.703125 L 2.125 0 L 1.078125 0 Z M 1.078125 -8.015625 "/>
</symbol>
<symbol overflow="visible" id="glyph0-2">
<path style="stroke:none;" d="M 4.328125 -7.28125 C 3.546875 -7.28125 2.921875 -6.984375 2.453125 -6.390625 C 1.992188 -5.804688 1.765625 -5.007812 1.765625 -4 C 1.765625 -2.988281 1.992188 -2.1875 2.453125 -1.59375 C 2.921875 -1.007812 3.546875 -0.71875 4.328125 -0.71875 C 5.117188 -0.71875 5.742188 -1.007812 6.203125 -1.59375 C 6.660156 -2.1875 6.890625 -2.988281 6.890625 -4 C 6.890625 -5.007812 6.660156 -5.804688 6.203125 -6.390625 C 5.742188 -6.984375 5.117188 -7.28125 4.328125 -7.28125 Z M 4.328125 -8.171875 C 5.453125 -8.171875 6.351562 -7.789062 7.03125 -7.03125 C 7.707031 -6.28125 8.046875 -5.269531 8.046875 -4 C 8.046875 -2.738281 7.707031 -1.726562 7.03125 -0.96875 C 6.351562 -0.21875 5.453125 0.15625 4.328125 0.15625 C 3.203125 0.15625 2.300781 -0.21875 1.625 -0.96875 C 0.957031 -1.71875 0.625 -2.726562 0.625 -4 C 0.625 -5.269531 0.957031 -6.28125 1.625 -7.03125 C 2.300781 -7.789062 3.203125 -8.171875 4.328125 -8.171875 Z M 4.328125 -8.171875 "/>
</symbol>
<symbol overflow="visible" id="glyph0-3">
<path style="stroke:none;" d="M 1.078125 -8.015625 L 2.171875 -8.015625 L 2.171875 -4.734375 L 6.109375 -4.734375 L 6.109375 -8.015625 L 7.1875 -8.015625 L 7.1875 0 L 6.109375 0 L 6.109375 -3.8125 L 2.171875 -3.8125 L 2.171875 0 L 1.078125 0 Z M 1.078125 -8.015625 "/>
</symbol>
</g>
</defs>
<g id="surface38593">
<rect x="0" y="0" width="300" height="300" style="fill:rgb(100%,100%,100%);fill-opacity:1;stroke:none;"/>
<path style="fill:none;stroke-width:1.2;stroke-linecap:butt;stroke-linejoin:miter;stroke:rgb(0%,0%,0%);stroke-opacity:1;stroke-miterlimit:10;" d="M 62.375 60.589844 L 35.25 61.933594 "/>
<path style="fill:none;stroke-width:1.2;stroke-linecap:butt;stroke-linejoin:miter;stroke:rgb(0%,0%,0%);stroke-opacity:1;stroke-miterlimit:10;" d="M 49.976562 84.75 L 62.375 60.589844 "/>
<path style="fill:none;stroke-width:1.2;stroke-linecap:butt;stroke-linejoin:miter;stroke:rgb(0%,0%,0%);stroke-opacity:1;stroke-miterlimit:10;" d="M 35.25 61.933594 L 49.976562 84.75 "/>
<path style="fill:none;stroke-width:1.2;stroke-linecap:butt;stroke-linejoin:miter;stroke:rgb(0%,0%,0%);stroke-opacity:1;stroke-miterlimit:10;" d="M 49.976562 84.75 L 51.324219 111.875 "/>
<path style="fill:none;stroke-width:1.2;stroke-linecap:butt;stroke-linejoin:miter;stroke:rgb(0%,0%,0%);stroke-opacity:1;stroke-miterlimit:10;" d="M 51.324219 111.875 L 76.816406 116.414062 "/>
<path style="fill:none;stroke-width:1.2;stroke-linecap:butt;stroke-linejoin:miter;stroke:rgb(0%,0%,100%);stroke-opacity:1;stroke-miterlimit:10;" d="M 76.816406 116.414062 L 102.3125 120.953125 "/>
<path style="fill:none;stroke-width:1.2;stroke-linecap:butt;stroke-linejoin:miter;stroke:rgb(0%,0%,100%);stroke-opacity:1;stroke-miterlimit:10;" d="M 102.3125 120.953125 L 110.867188 122.429688 "/>
<path style="fill:none;stroke-width:1.2;stroke-linecap:butt;stroke-linejoin:miter;stroke:rgb(0%,0%,0%);stroke-opacity:1;stroke-miterlimit:10;" d="M 110.867188 122.429688 L 119.421875 123.902344 "/>
<path style="fill:none;stroke-width:1.2;stroke-linecap:butt;stroke-linejoin:miter;stroke:rgb(0%,0%,0%);stroke-opacity:1;stroke-miterlimit:10;" d="M 98.304688 109.542969 L 100.308594 115.25 "/>
<path style="fill:none;stroke-width:1.2;stroke-linecap:butt;stroke-linejoin:miter;stroke:rgb(0%,0%,100%);stroke-opacity:1;stroke-miterlimit:10;" d="M 100.308594 115.25 L 102.3125 120.953125 "/>
<path style=" stroke:none;fill-rule:nonzero;fill:rgb(100%,100%,100%);fill-opacity:1;" d="M 98.3125 114.453125 L 106.3125 114.453125 L 106.3125 127.453125 L 98.3125 127.453125 Z M 98.3125 114.453125 "/>
<g style="fill:rgb(0%,0%,100%);fill-opacity:1;">
  <use xlink:href="#glyph0-1" x="98.3125" y="124.354492"/>
</g>
<path style="fill:none;stroke-width:1.2;stroke-linecap:butt;stroke-linejoin:miter;stroke:rgb(0%,0%,0%);stroke-opacity:1;stroke-miterlimit:10;" d="M 119.421875 123.902344 L 115.066406 140.714844 "/>
<path style=" stroke:none;fill-rule:nonzero;fill:rgb(0%,0%,0%);fill-opacity:1;" d="M 123.8125 149.0625 L 118.375 137.246094 L 111.753906 144.179688 Z M 123.8125 149.0625 "/>
<path style="fill:none;stroke-width:1.2;stroke-linecap:butt;stroke-linejoin:miter;stroke:rgb(0%,0%,0%);stroke-opacity:1;stroke-miterlimit:10;" d="M 123.8125 149.0625 L 147.972656 161.460938 "/>
<path style="fill:none;stroke-width:1.2;stroke-linecap:butt;stroke-linejoin:miter;stroke:rgb(0%,0%,0%);stroke-opacity:1;stroke-miterlimit:10;" d="M 122.464844 121.941406 L 123.8125 149.0625 "/>
<path style="fill:none;stroke-width:1.2;stroke-linecap:butt;stroke-linejoin:miter;stroke:rgb(0%,0%,0%);stroke-opacity:1;stroke-miterlimit:10;" d="M 104.554688 168.214844 L 123.8125 149.0625 "/>
<path style=" stroke:none;fill-rule:nonzero;fill:rgb(0%,0%,0%);fill-opacity:1;" d="M 147.972656 161.460938 L 173.390625 150.757812 L 168.191406 142.707031 Z M 147.972656 161.460938 "/>
<path style="fill:none;stroke-width:1.2;stroke-linecap:butt;stroke-linejoin:miter;stroke:rgb(100%,0%,0%);stroke-opacity:1;stroke-miterlimit:10;" d="M 143.652344 188.269531 L 145.8125 174.867188 "/>
<path style="fill:none;stroke-width:1.2;stroke-linecap:butt;stroke-linejoin:miter;stroke:rgb(0%,0%,0%);stroke-opacity:1;stroke-miterlimit:10;" d="M 145.8125 174.867188 L 147.972656 161.460938 "/>
<path style="fill:none;stroke-width:1.2;stroke-linecap:butt;stroke-linejoin:miter;stroke:rgb(0%,0%,0%);stroke-opacity:1;stroke-miterlimit:10;" d="M 169.332031 149.574219 L 181.414062 155.773438 "/>
<path style="fill:none;stroke-width:1.2;stroke-linecap:butt;stroke-linejoin:miter;stroke:rgb(100%,0%,0%);stroke-opacity:1;stroke-miterlimit:10;" d="M 181.414062 155.773438 L 193.496094 161.972656 "/>
<path style="fill:none;stroke-width:1.2;stroke-linecap:butt;stroke-linejoin:miter;stroke:rgb(0%,0%,0%);stroke-opacity:1;stroke-miterlimit:10;" d="M 172.25 143.890625 L 184.332031 150.089844 "/>
<path style="fill:none;stroke-width:1.2;stroke-linecap:butt;stroke-linejoin:miter;stroke:rgb(100%,0%,0%);stroke-opacity:1;stroke-miterlimit:10;" d="M 184.332031 150.089844 L 196.410156 156.285156 "/>
<path style="fill:none;stroke-width:1.2;stroke-linecap:butt;stroke-linejoin:miter;stroke:rgb(0%,0%,0%);stroke-opacity:1;stroke-miterlimit:10;" d="M 170.789062 146.734375 L 169.445312 119.609375 "/>
<path style=" stroke:none;fill-rule:nonzero;fill:rgb(100%,100%,100%);fill-opacity:1;" d="M 190.953125 152.628906 L 199.953125 152.628906 L 199.953125 165.628906 L 190.953125 165.628906 Z M 190.953125 152.628906 "/>
<g style="fill:rgb(100%,0%,0%);fill-opacity:1;">
  <use xlink:href="#glyph0-2" x="190.953125" y="162.530273"/>
</g>
<path style="fill:none;stroke-width:1.2;stroke-linecap:butt;stroke-linejoin:miter;stroke:rgb(0%,0%,0%);stroke-opacity:1;stroke-miterlimit:10;" d="M 169.445312 119.609375 L 192.261719 104.882812 "/>
<path style="fill:none;stroke-width:1.2;stroke-linecap:butt;stroke-linejoin:miter;stroke:rgb(0%,0%,0%);stroke-opacity:1;stroke-miterlimit:10;" d="M 175.191406 123.503906 L 193.445312 111.722656 "/>
<path style="fill:none;stroke-width:1.2;stroke-linecap:butt;stroke-linejoin:miter;stroke:rgb(0%,0%,0%);stroke-opacity:1;stroke-miterlimit:10;" d="M 169.445312 119.609375 L 145.28125 107.214844 "/>
<path style="fill:none;stroke-width:1.2;stroke-linecap:butt;stroke-linejoin:miter;stroke:rgb(0%,0%,0%);stroke-opacity:1;stroke-miterlimit:10;" d="M 192.261719 104.882812 L 216.425781 117.277344 "/>
<path style="fill:none;stroke-width:1.2;stroke-linecap:butt;stroke-linejoin:miter;stroke:rgb(0%,0%,0%);stroke-opacity:1;stroke-miterlimit:10;" d="M 216.425781 117.277344 L 217.769531 144.402344 "/>
<path style="fill:none;stroke-width:1.2;stroke-linecap:butt;stroke-linejoin:miter;stroke:rgb(0%,0%,0%);stroke-opacity:1;stroke-miterlimit:10;" d="M 222.941406 119.675781 L 224.019531 141.371094 "/>
<path style="fill:none;stroke-width:1.2;stroke-linecap:butt;stroke-linejoin:miter;stroke:rgb(0%,0%,0%);stroke-opacity:1;stroke-miterlimit:10;" d="M 239.242188 102.550781 L 216.425781 117.277344 "/>
<path style="fill:none;stroke-width:1.2;stroke-linecap:butt;stroke-linejoin:miter;stroke:rgb(0%,0%,0%);stroke-opacity:1;stroke-miterlimit:10;" d="M 217.769531 144.402344 L 241.933594 156.796875 "/>
<path style="fill:none;stroke-width:1.2;stroke-linecap:butt;stroke-linejoin:miter;stroke:rgb(0%,0%,0%);stroke-opacity:1;stroke-miterlimit:10;" d="M 241.933594 156.796875 L 264.75 142.070312 "/>
<path style="fill:none;stroke-width:1.2;stroke-linecap:butt;stroke-linejoin:miter;stroke:rgb(0%,0%,0%);stroke-opacity:1;stroke-miterlimit:10;" d="M 240.75 149.957031 L 259.003906 138.175781 "/>
<path style="fill:none;stroke-width:1.2;stroke-linecap:butt;stroke-linejoin:miter;stroke:rgb(0%,0%,0%);stroke-opacity:1;stroke-miterlimit:10;" d="M 264.75 142.070312 L 263.402344 114.945312 "/>
<path style="fill:none;stroke-width:1.2;stroke-linecap:butt;stroke-linejoin:miter;stroke:rgb(0%,0%,0%);stroke-opacity:1;stroke-miterlimit:10;" d="M 263.402344 114.945312 L 239.242188 102.550781 "/>
<path style="fill:none;stroke-width:1.2;stroke-linecap:butt;stroke-linejoin:miter;stroke:rgb(0%,0%,0%);stroke-opacity:1;stroke-miterlimit:10;" d="M 258.070312 119.394531 L 238.742188 109.476562 "/>
<path style="fill:none;stroke-width:1.2;stroke-linecap:butt;stroke-linejoin:miter;stroke:rgb(0%,0%,0%);stroke-opacity:1;stroke-miterlimit:10;" d="M 145.28125 107.214844 L 122.464844 121.941406 "/>
<path style="fill:none;stroke-width:1.2;stroke-linecap:butt;stroke-linejoin:miter;stroke:rgb(0%,0%,0%);stroke-opacity:1;stroke-miterlimit:10;" d="M 122.464844 121.941406 L 98.304688 109.542969 "/>
<path style=" stroke:none;fill-rule:nonzero;fill:rgb(0%,0%,0%);fill-opacity:1;" d="M 122.464844 121.941406 L 125.90625 94.578125 L 116.332031 95.054688 Z M 122.464844 121.941406 "/>
<path style="fill:none;stroke-width:1;stroke-linecap:butt;stroke-linejoin:miter;stroke:rgb(0%,0%,0%);stroke-opacity:1;stroke-miterlimit:10;" d="M 98.304688 109.542969 L 98.304688 109.542969 M 96.679688 112.066406 L 97.496094 112.433594 M 95.054688 114.589844 L 96.691406 115.324219 M 93.429688 117.109375 L 95.886719 118.214844 M 91.804688 119.632812 L 95.078125 121.101562 M 90.179688 122.15625 L 94.273438 123.992188 M 88.554688 124.675781 L 93.46875 126.882812 M 86.929688 127.199219 L 92.664062 129.773438 M 85.304688 129.722656 L 91.855469 132.664062 M 83.683594 132.242188 L 91.050781 135.550781 M 82.058594 134.765625 L 90.246094 138.441406 M 80.953125 136.476562 L 89.699219 140.402344 "/>
<path style="fill:none;stroke-width:1.2;stroke-linecap:butt;stroke-linejoin:miter;stroke:rgb(0%,0%,0%);stroke-opacity:1;stroke-miterlimit:10;" d="M 85.328125 138.441406 L 77.441406 166.71875 "/>
<path style="fill:none;stroke-width:1.2;stroke-linecap:butt;stroke-linejoin:miter;stroke:rgb(0%,0%,0%);stroke-opacity:1;stroke-miterlimit:10;" d="M 77.441406 166.71875 L 104.554688 168.214844 "/>
<path style="fill:none;stroke-width:1.2;stroke-linecap:butt;stroke-linejoin:miter;stroke:rgb(0%,0%,0%);stroke-opacity:1;stroke-miterlimit:10;" d="M 79.800781 173.246094 L 101.492188 174.445312 "/>
<path style="fill:none;stroke-width:1.2;stroke-linecap:butt;stroke-linejoin:miter;stroke:rgb(0%,0%,0%);stroke-opacity:1;stroke-miterlimit:10;" d="M 62.585938 189.453125 L 77.441406 166.71875 "/>
<path style="fill:none;stroke-width:1.2;stroke-linecap:butt;stroke-linejoin:miter;stroke:rgb(0%,0%,0%);stroke-opacity:1;stroke-miterlimit:10;" d="M 104.554688 168.214844 L 116.816406 192.445312 "/>
<path style="fill:none;stroke-width:1.2;stroke-linecap:butt;stroke-linejoin:miter;stroke:rgb(0%,0%,0%);stroke-opacity:1;stroke-miterlimit:10;" d="M 116.816406 192.445312 L 101.964844 215.179688 "/>
<path style="fill:none;stroke-width:1.2;stroke-linecap:butt;stroke-linejoin:miter;stroke:rgb(0%,0%,0%);stroke-opacity:1;stroke-miterlimit:10;" d="M 109.980469 191.222656 L 98.097656 209.410156 "/>
<path style="fill:none;stroke-width:1.2;stroke-linecap:butt;stroke-linejoin:miter;stroke:rgb(0%,0%,0%);stroke-opacity:1;stroke-miterlimit:10;" d="M 116.816406 192.445312 L 130.234375 190.359375 "/>
<path style="fill:none;stroke-width:1.2;stroke-linecap:butt;stroke-linejoin:miter;stroke:rgb(100%,0%,0%);stroke-opacity:1;stroke-miterlimit:10;" d="M 130.234375 190.359375 L 143.652344 188.269531 "/>
<path style="fill:none;stroke-width:1.2;stroke-linecap:butt;stroke-linejoin:miter;stroke:rgb(0%,0%,0%);stroke-opacity:1;stroke-miterlimit:10;" d="M 101.964844 215.179688 L 74.847656 213.683594 "/>
<path style="fill:none;stroke-width:1.2;stroke-linecap:butt;stroke-linejoin:miter;stroke:rgb(0%,0%,0%);stroke-opacity:1;stroke-miterlimit:10;" d="M 101.964844 215.179688 L 108.09375 227.296875 "/>
<path style="fill:none;stroke-width:1.2;stroke-linecap:butt;stroke-linejoin:miter;stroke:rgb(100%,0%,0%);stroke-opacity:1;stroke-miterlimit:10;" d="M 108.09375 227.296875 L 114.226562 239.410156 "/>
<path style="fill:none;stroke-width:1.2;stroke-linecap:butt;stroke-linejoin:miter;stroke:rgb(0%,0%,0%);stroke-opacity:1;stroke-miterlimit:10;" d="M 74.847656 213.683594 L 62.585938 189.453125 "/>
<path style="fill:none;stroke-width:1.2;stroke-linecap:butt;stroke-linejoin:miter;stroke:rgb(0%,0%,0%);stroke-opacity:1;stroke-miterlimit:10;" d="M 79.324219 208.375 L 69.511719 188.988281 "/>
<path style=" stroke:none;fill-rule:nonzero;fill:rgb(100%,100%,100%);fill-opacity:1;" d="M 106.226562 232.910156 L 123.226562 232.910156 L 123.226562 245.910156 L 106.226562 245.910156 Z M 106.226562 232.910156 "/>
<g style="fill:rgb(100%,0%,0%);fill-opacity:1;">
  <use xlink:href="#glyph0-2" x="106.226562" y="242.811523"/>
  <use xlink:href="#glyph0-3" x="114.626953" y="242.811523"/>
</g>
<path style=" stroke:none;fill-rule:nonzero;fill:rgb(100%,100%,100%);fill-opacity:1;" d="M 139.652344 181.769531 L 148.652344 181.769531 L 148.652344 194.769531 L 139.652344 194.769531 Z M 139.652344 181.769531 "/>
<g style="fill:rgb(100%,0%,0%);fill-opacity:1;">
  <use xlink:href="#glyph0-2" x="139.652344" y="191.670898"/>
</g>
<path style=" stroke:none;fill-rule:nonzero;fill:rgb(100%,100%,100%);fill-opacity:1;" d="M 113.121094 88.316406 L 130.121094 88.316406 L 130.121094 101.316406 L 113.121094 101.316406 Z M 113.121094 88.316406 "/>
<g style="fill:rgb(100%,0%,0%);fill-opacity:1;">
  <use xlink:href="#glyph0-3" x="113.121094" y="98.217773"/>
  <use xlink:href="#glyph0-2" x="121.145508" y="98.217773"/>
</g>
</g>
</svg>

<svg xmlns="http://www.w3.org/2000/svg" xmlns:xlink="http://www.w3.org/1999/xlink" width="300pt" height="300pt" viewBox="0 0 300 300"><defs><symbol overflow="visible"><path d="M.547 1.938V-7.75h5.5v9.688zm.625-.61h4.266v-8.47H1.171zm0 0"/></symbol><symbol overflow="visible" id="a"><path d="M1.078-8.016h1.47l3.546 6.704v-6.704h1.062V0H5.688L2.124-6.703V0H1.078zm0 0"/></symbol><symbol overflow="visible" id="b"><path d="M4.328-7.28c-.78 0-1.406.296-1.875.89-.46.585-.687 1.382-.687 2.39 0 1.012.226 1.813.687 2.406.47.586 1.094.875 1.875.875.79 0 1.414-.288 1.875-.874.457-.593.688-1.394.688-2.406 0-1.008-.23-1.805-.687-2.39-.46-.594-1.086-.89-1.875-.89zm0-.892c1.125 0 2.024.383 2.703 1.14C7.708-6.28 8.048-5.27 8.048-4c0 1.262-.34 2.273-1.016 3.03C6.353-.22 5.454.157 4.33.157S2.3-.22 1.625-.97c-.668-.75-1-1.757-1-3.03 0-1.27.332-2.28 1-3.03.676-.76 1.578-1.142 2.703-1.142zm0 0"/></symbol><symbol overflow="visible" id="c"><path d="M1.078-8.016h1.094v3.282H6.11v-3.282h1.077V0H6.11v-3.813H2.17V0H1.078zm0 0"/></symbol></defs><g><path fill="#fff" d="M0 0h300v300H0z"/><path d="M62.375 60.59L35.25 61.934M49.977 84.75l12.398-24.16M35.25 61.934L49.977 84.75M49.977 84.75l1.347 27.125M51.324 111.875l25.492 4.54" stroke-width="1.2" stroke="#000" stroke-miterlimit="10" fill="none"/><path d="M76.816 116.414l25.496 4.54M102.313 120.953l8.554 1.477" stroke-width="1.2" stroke="#00f" stroke-miterlimit="10" fill="none"/><path d="M110.867 122.43l8.555 1.472M98.305 109.543l2.004 5.707" stroke-width="1.2" stroke="#000" stroke-miterlimit="10" fill="none"/><path d="M100.31 115.25l2.002 5.703" stroke-width="1.2" stroke="#00f" stroke-miterlimit="10" fill="none"/><path d="M98.313 114.453h8v13h-8zm0 0" fill="#fff"/><use xlink:href="#a" x="98.313" y="124.354" fill="#00f"/><path d="M119.422 123.902l-4.356 16.813" stroke-width="1.2" stroke="#000" stroke-miterlimit="10" fill="none"/><path d="M123.813 149.063l-5.438-11.817-6.62 6.934zm0 0"/><path d="M123.813 149.063l24.16 12.398M122.465 121.94l1.347 27.123M104.555 168.215l19.257-19.153" stroke-width="1.2" stroke="#000" stroke-miterlimit="10" fill="none"/><path d="M147.973 161.46l25.418-10.702-5.2-8.05zm0 0"/><path d="M143.652 188.27l2.16-13.403" stroke-width="1.2" stroke="#f00" stroke-miterlimit="10" fill="none"/><path d="M145.813 174.867l2.16-13.406M169.332 149.574l12.082 6.2" stroke-width="1.2" stroke="#000" stroke-miterlimit="10" fill="none"/><path d="M181.414 155.773l12.082 6.2" stroke-width="1.2" stroke="#f00" stroke-miterlimit="10" fill="none"/><path d="M172.25 143.89l12.082 6.2" stroke-width="1.2" stroke="#000" stroke-miterlimit="10" fill="none"/><path d="M184.332 150.09l12.078 6.195" stroke-width="1.2" stroke="#f00" stroke-miterlimit="10" fill="none"/><path d="M170.79 146.734l-1.345-27.125" stroke-width="1.2" stroke="#000" stroke-miterlimit="10" fill="none"/><path d="M190.953 152.63h9v13h-9zm0 0" fill="#fff"/><use xlink:href="#b" x="190.953" y="162.53" fill="#f00"/><path d="M169.445 119.61l22.817-14.727M175.19 123.504l18.255-11.78M169.445 119.61l-24.164-12.395M192.262 104.883l24.164 12.394M216.426 117.277l1.344 27.125M222.94 119.676l1.08 21.695M239.242 102.55l-22.816 14.727M217.77 144.402l24.164 12.395M241.934 156.797l22.816-14.727M240.75 149.957l18.254-11.78M264.75 142.07l-1.348-27.125M263.402 114.945l-24.16-12.394M258.07 119.395l-19.328-9.918M145.28 107.215l-22.815 14.726M122.465 121.94l-24.16-12.397" stroke-width="1.2" stroke="#000" stroke-miterlimit="10" fill="none"/><path d="M122.465 121.94l3.44-27.362-9.573.477zm0 0"/><path d="M98.305 109.543m-1.625 2.523l.816.368m-2.44 2.156l1.635.734m-3.26 1.785l2.457 1.105m-4.082 1.418l3.273 1.47m-4.898 1.053l4.093 1.836m-5.718.684l4.914 2.207m-6.54.316l5.734 2.573m-7.36-.05l6.55 2.94m-8.17-.42l7.367 3.308m-8.99-.784l8.186 3.675m-9.293-1.963l8.746 3.925" stroke="#000" stroke-miterlimit="10" fill="none"/><path d="M85.328 138.44l-7.887 28.28M77.44 166.72l27.115 1.495M79.8 173.246l21.692 1.2M62.586 189.453L77.44 166.72M104.555 168.215l12.26 24.23M116.816 192.445l-14.85 22.735M109.98 191.223L98.098 209.41M116.816 192.445l13.418-2.086" stroke-width="1.2" stroke="#000" stroke-miterlimit="10" fill="none"/><path d="M130.234 190.36l13.418-2.09" stroke-width="1.2" stroke="#f00" stroke-miterlimit="10" fill="none"/><path d="M101.965 215.18l-27.117-1.496M101.965 215.18l6.13 12.117" stroke-width="1.2" stroke="#000" stroke-miterlimit="10" fill="none"/><path d="M108.094 227.297l6.133 12.113" stroke-width="1.2" stroke="#f00" stroke-miterlimit="10" fill="none"/><path d="M74.848 213.684l-12.262-24.23M79.324 208.375l-9.812-19.387" stroke-width="1.2" stroke="#000" stroke-miterlimit="10" fill="none"/><path d="M106.227 232.91h17v13h-17zm0 0" fill="#fff"/><g fill="#f00"><use xlink:href="#b" x="106.227" y="242.812"/><use xlink:href="#c" x="114.627" y="242.812"/></g><path d="M139.652 181.77h9v13h-9zm0 0" fill="#fff"/><use xlink:href="#b" x="139.652" y="191.671" fill="#f00"/><path d="M113.12 88.316h17v13h-17zm0 0" fill="#fff"/><g fill="#f00"><use xlink:href="#c" x="113.121" y="98.218"/><use xlink:href="#b" x="121.146" y="98.218"/></g></g></svg>
